src/brands/coach/default/asset/icon/object/lock.svg

<svg width="24" height="24" viewBox="0 0 24 24" fill="none" xmlns="http://www.w3.org/2000/svg">
<path fill-rule="evenodd" clip-rule="evenodd" d="M11.9059 3.5C9.91906 3.5 8.29999 5.10961 8.29999 7.06382V9.75H7.29999V7.06382C7.29999 4.5476 9.37655 2.5 11.9059 2.5H12.0938C14.6234 2.5 16.7 4.54758 16.7 7.06382V9.75H15.7V7.06382C15.7 5.10963 14.0809 3.5 12.0938 3.5H11.9059Z" fill="black"/>
<path fill-rule="evenodd" clip-rule="evenodd" d="M6.27195 9.80005C5.84486 9.80005 5.5 10.1456 5.5 10.5699V19.7299C5.5 20.1546 5.84494 20.5 6.27195 20.5H17.728C18.1551 20.5 18.5 20.1546 18.5 19.7299V10.5699C18.5 10.1456 18.1551 9.80005 17.728 9.80005H6.27195ZM4.5 10.5699C4.5 9.59183 5.29405 8.80005 6.27195 8.80005H17.728C18.7059 8.80005 19.5 9.59183 19.5 10.5699V19.7299C19.5 20.7082 18.706 21.5 17.728 21.5H6.27195C5.29398 21.5 4.5 20.7082 4.5 19.7299V10.5699Z" fill="black"/>
<path fill-rule="evenodd" clip-rule="evenodd" d="M10.5667 14.4672C10.5667 13.5536 11.3337 12.85 12.2333 12.85C13.1333 12.85 13.9 13.5537 13.9 14.4672C13.9 14.8969 13.7272 15.2825 13.4533 15.5681V17.4579C13.4533 17.9703 13.0238 18.35 12.5435 18.35H11.9231C11.4424 18.35 11.0137 17.9699 11.0137 17.4579V15.5681C10.7398 15.2826 10.5667 14.8971 10.5667 14.4672ZM12.2333 13.85C11.8446 13.85 11.5667 14.1464 11.5667 14.4672C11.5667 14.6541 11.6576 14.8279 11.8146 14.9462L12.0137 15.0962V17.35H12.4533V15.0962L12.6524 14.9462C12.8091 14.8281 12.9 14.6544 12.9 14.4672C12.9 14.1464 12.6223 13.85 12.2333 13.85Z" fill="black"/>
</svg>

<svg xmlns="http://www.w3.org/2000/svg" viewBox="0 0 15 19"><path d="M16.7,9.75h-1V7.06A3.59,3.59,0,0,0,12.09,3.5h-.18A3.59,3.59,0,0,0,8.3,7.06V9.75h-1V7.06A4.59,4.59,0,0,1,11.91,2.5h.18A4.59,4.59,0,0,1,16.7,7.06Z" transform="translate(-4.5 -2.5)"/><path d="M17.73,21.5H6.27A1.77,1.77,0,0,1,4.5,19.73V10.57A1.77,1.77,0,0,1,6.27,8.8H17.73a1.77,1.77,0,0,1,1.77,1.77v9.16A1.77,1.77,0,0,1,17.73,21.5ZM6.27,9.8a.78.78,0,0,0-.77.77v9.16a.78.78,0,0,0,.77.77H17.73a.78.78,0,0,0,.77-.77V10.57a.78.78,0,0,0-.77-.77Z" transform="translate(-4.5 -2.5)"/><path d="M12.54,18.35h-.62a.9.9,0,0,1-.91-.89V15.57a1.61,1.61,0,0,1-.44-1.1,1.67,1.67,0,0,1,3.33,0,1.58,1.58,0,0,1-.45,1.1v1.89A.9.9,0,0,1,12.54,18.35Zm-.53-1h.44V15.1l.2-.15a.61.61,0,0,0,.25-.48.67.67,0,0,0-1.33,0,.63.63,0,0,0,.24.48l.2.15Z" transform="translate(-4.5 -2.5)"/></svg>
